symbols/be/PVR-{150}.svg

<?xml version="1.0" encoding="UTF-8" standalone="no"?>
<!-- Initially created with Inkscape, optimized by hand -->

<svg
   version="1.1"
   width="20"
   height="17.320999"
   id="svg1"
   xmlns="http://www.w3.org/2000/svg"
   xmlns:svg="http://www.w3.org/2000/svg">
  <defs
     id="defs1" />
  <path
     id="Fond"
     d="M 20,17.320999 H 0 L 10,-1.2114258e-6 Z"
     fill="#0b9b7b"
     style="stroke-width:0.1" />
  <path
     style="font-size:10.6667px;font-family:Isonorm;-inkscape-font-specification:'Isonorm, Normal';fill:#ffffff;fill-rule:evenodd;stroke-width:0.377953;stroke-linejoin:bevel"
     d="M 8.84607,15.130489 V 8.7411348 c 0,-0.106667 -0.032,-0.192 -0.106667,-0.266667 -0.064,-0.07467 -0.362667,-0.149334 -0.501334,-0.01067 l -1.429338,1.429338 c -0.149334,0.1493342 -0.096,0.4266682 0.01067,0.5333352 0.096,0.106667 0.352002,0.128 0.490669,-0.01067 L 8.131406,9.5837988 V 15.14115 c 0,0.192 0.170667,0.352001 0.362667,0.352001 0.192001,0 0.352001,-0.160001 0.352001,-0.362668 z m 4.43734,-6.3893542 c 0,-0.202667 -0.16,-0.362667 -0.352,-0.362667 H 10.0834 c -0.096,0 -0.17067,0.02133 -0.23467,0.08533 -0.08533,0.08533 -0.117334,0.160001 -0.117334,0.277334 v 2.8373432 c 0,0.117333 0.032,0.192 0.117334,0.277334 0.064,0.064 0.138667,0.08533 0.23467,0.08533 h 1.408 c 0.29867,0 0.50134,0.064 0.72534,0.266668 0.24533,0.224001 0.34133,0.458668 0.34133,0.800002 v 0.704003 c 0,0.309334 -0.064,0.512001 -0.27733,0.746669 -0.18134,0.192 -0.45867,0.320001 -0.78934,0.320001 h -1.42934 c -0.191996,0 -0.351997,0.170667 -0.351997,0.362668 0,0.192 0.160001,0.352001 0.351997,0.352001 h 1.42934 c 0.55467,0 1.04534,-0.224001 1.33334,-0.565335 0.30933,-0.341335 0.43733,-0.704003 0.43733,-1.216004 v -0.704003 c 0,-0.597335 -0.26666,-1.109336 -0.61866,-1.397337 C 12.34474,11.365138 11.80074,11.22647 11.4914,11.22647 H 10.44607 V 9.0931298 h 2.48534 c 0.192,0 0.352,-0.138667 0.352,-0.352001 z"
     id="text1"
     aria-label="15" />
</svg>

<?xml version="1.0" encoding="UTF-8"?>
<svg xmlns="http://www.w3.org/2000/svg" xmlns:xlink="http://www.w3.org/1999/xlink" width="20" height="17.320999" viewBox="0 0 20 17.320999">
<path fill-rule="nonzero" fill="rgb(4.313725%, 60.784314%, 48.235294%)" fill-opacity="1" d="M 20 17.320312 L 0 17.320312 L 10 0 Z M 20 17.320312 "/>
<path fill-rule="evenodd" fill="rgb(100%, 100%, 100%)" fill-opacity="1" d="M 8.847656 15.128906 L 8.847656 8.742188 C 8.847656 8.632812 8.8125 8.550781 8.738281 8.472656 C 8.675781 8.398438 8.375 8.324219 8.238281 8.464844 L 6.808594 9.894531 C 6.660156 10.042969 6.710938 10.320312 6.820312 10.425781 C 6.914062 10.53125 7.171875 10.554688 7.308594 10.414062 L 8.132812 9.582031 L 8.132812 15.140625 C 8.132812 15.332031 8.300781 15.492188 8.492188 15.492188 C 8.6875 15.492188 8.847656 15.332031 8.847656 15.128906 Z M 13.285156 8.742188 C 13.285156 8.539062 13.125 8.378906 12.929688 8.378906 L 10.082031 8.378906 C 9.988281 8.378906 9.914062 8.398438 9.847656 8.464844 C 9.761719 8.550781 9.730469 8.625 9.730469 8.742188 L 9.730469 11.578125 C 9.730469 11.695312 9.761719 11.769531 9.847656 11.855469 C 9.914062 11.917969 9.988281 11.941406 10.082031 11.941406 L 11.492188 11.941406 C 11.789062 11.941406 11.992188 12.003906 12.214844 12.207031 C 12.460938 12.433594 12.558594 12.667969 12.558594 13.007812 L 12.558594 13.710938 C 12.558594 14.019531 12.492188 14.222656 12.28125 14.457031 C 12.097656 14.652344 11.820312 14.777344 11.492188 14.777344 L 10.0625 14.777344 C 9.871094 14.777344 9.710938 14.949219 9.710938 15.140625 C 9.710938 15.332031 9.871094 15.492188 10.0625 15.492188 L 11.492188 15.492188 C 12.046875 15.492188 12.535156 15.269531 12.824219 14.929688 C 13.132812 14.585938 13.261719 14.222656 13.261719 13.710938 L 13.261719 13.007812 C 13.261719 12.410156 12.996094 11.898438 12.644531 11.609375 C 12.34375 11.363281 11.800781 11.226562 11.492188 11.226562 L 10.445312 11.226562 L 10.445312 9.09375 L 12.929688 9.09375 C 13.125 9.09375 13.285156 8.953125 13.285156 8.742188 Z M 13.285156 8.742188 "/>
</svg>
